X:1
Z:Rights of Man
L:1/8
M:4/4
I:linebreak $
K:G
V:1 treble nm="Voice" snm="Voice"
V:1
 GA |:"Em" BcB ABA GAG | EFGA B2 [Fe]2 | gfed edcB |$ cBAG F2 GA | BcB ABA (3GAG | EFGA B2 ef |$ %7
w: |* if * * * * * * *||||||
w: * B|* * * * Em * * * *||||||
 gfed"B" Bg fgf |1 e2 B2 E2 GA :|2 e2 B2 E2 g2 |: bgbg efg3/2g |$ bagf egfe | d^cde fefg | %13
w: ||||||
w: ||||||
 g2>f2df a2 | dBeg fdfa |$"Em" gfga bgee | gfed Bg f2 |1 e2 B2 E2 g3/2g2 :|2 e2 B2 E2 |] %19
w: ||||||
w: ||||||
